X:1
T:Benediction (Haydn), 87.87.87
T:Benediction (Haydn), 87.87.87
T:Franz Josef Haydn (1732-1809)
T:Public Domain Courtesy of the Cyber Hymnal™
C:Franz Josef Haydn (1732-1809)
Z:Public Domain
Z:Courtesy of the Cyber Hymnal™
%%score ( 1 2 ) ( 3 4 )
L:1/8
Q:1/4=112
M:4/4
K:A
V:1 treble 
V:2 treble 
V:3 bass 
V:4 bass 
V:1
 [EA]2 [EB]2 [Ec]2 [Ad]2 | [Ge]2 d2 [Ec]2 [EB]2 | [CA]2 [EA]2 [FA]2 [Fd]2 | c2 z [CA]4 x | %4
 [DF]2 [DF]2 [CE]2 [CE]2 | [CA]2 [EA]2 [EA]2 [EG]2 | [EB]2 [GB]2 [Ac]2 A2 x | [EG]2 [^DF]2 E4 x | %8
 [EG]2 [EG]2 [EA]2 [A,E]2 | F2 [^EG]2 [FA]2 [GB]2 | (cB) (AG) [DF]2 [Fd]2 | [Ec]2 [DB]2 [CA]4 |] %12
V:2
 x8 | x2 (FE) x4 | x8 | E3 (B2 D) x2 | x8 | x8 | x6 (EF) x | x4 E4 x | x8 | F2 x6 | A2 E2 x4 | %11
 x8 |] %12
V:3
 [A,C]2 [E,G,]2 A,2 [F,A,]2 | [E,B,]2 ([F,A,][G,B,]) A,2 [E,G,]2 | %2
 [F,A,]2 [C,A,]2 [D,A,]2 [B,,A,]2 | [E,A,]2 [E,G,]2 [A,,A,]4 | [D,A,]2 [D,A,]2 (A,B,) (CD) | %5
 E2 C2 [E,C]2 [E,B,]2 | B,3 z E (E^D) ([C,E][A,,C]) | B,3 z A, [E,G,]4 | B,2 z D, [C,A,]2 [C,A,]2 | %9
 [D,A,]2 [C,C]2 [F,C]2 [E,E]2 | [A,E]2 [C,A,]2 [D,A,]2 [B,,A,]2 | A,2 [E,G,]2 [A,,A,]4 |] %12
V:4
 x4 A,2 x2 | x4 A,2 x2 | x8 | x8 | x4 A,,2 A,,2 | (A,,B,,) (C,D,) x4 | G,2 E,2 A,,2 x3 | %7
 B,,2 B,,2 x5 | E,3 B,2 x3 | x8 | x8 | (C,D,) x6 |] %12

